storage/app/icons/phosphoricons/light/wall-light.svg

<svg xmlns="http://www.w3.org/2000/svg" fill="currentColor" viewBox="0 0 256 256"><path d="M224 50H32a6 6 0 0 0-6 6v144a6 6 0 0 0 6 6h192a6 6 0 0 0 6-6V56a6 6 0 0 0-6-6M86 146v-36h84v36Zm-48 0v-36h36v36Zm144-36h36v36h-36Zm36-12h-84V62h84Zm-96-36v36H38V62Zm-84 96h84v36H38Zm96 36v-36h84v36Z"/></svg>

<svg xmlns="http://www.w3.org/2000/svg" viewBox="0 0 256 256" fill="currentColor"><path d="M224,50H32a6,6,0,0,0-6,6V200a6,6,0,0,0,6,6H224a6,6,0,0,0,6-6V56A6,6,0,0,0,224,50ZM86,146V110h84v36Zm-48,0V110H74v36Zm144-36h36v36H182Zm36-12H134V62h84ZM122,62V98H38V62ZM38,158h84v36H38Zm96,36V158h84v36Z"/></svg>
